X:1
T:Last Old Train's A-Leavin'
M:4/4
L:1/4
K:G
 D3/2 D/2 D G| G2 G2| A3/2 A/2 G E| G2 D2| D3/2 D/2 D G| G2 G2| A3/2 A/2 B A|\
 G4-| G2 B3/2 A/2| B A G/2- E G/2| G2 G3/2 E/2| B A G/2- E G/2| G2 D z/2 G/2|\
 B A G/2- E G/2| G2 B/2- A3/2| A3/2 A/2 B A| G4-| G3 z|
